X: 1
T: Norman & Helen Robson
C:\251 George Meikle
B: George Meikle "Originally Mine" p.22
R: strathspey
Z: 2010 John Chambers <jc:trillian.mit.edu>
M: 4/4
L: 1/8
K: D
d>B \
|: "D"A<d d2 "Bm"d<f f>d | "Em"e>d c>B "A7"A3 A |\
   "D"A<d d2 "Bm"d<f f>d | "Em"e>d e>f "A7"e2 d>B |
   "D"A<d d2 "Bm"d<f f>d | "Em"e>d "A7"c>B "D"A3 A |\
   "G"B>G B<d "A7"c>A c<e |1 "D"f2 "G"d2 "D"d2 d>B :|2 "D"f2 "G"d2 "D"d2 "A7"f>g ||
|: "D"a>f d<f "Bm"a2 g>f | "Em"g>e c<e "A7"g2 f>e |\
   "D"d>c d>e "Bm"f>e d<f |
[1 "Em"g2 e2 "A7"e2 f>g |\
   "D"a>f d<f "Bm"a2 g>f | "Em"g>e c<e "A7"g2 f>e |\
   "D"f>e d>f "Em"g>e "A7"a<g | "D"f2 d2 d2 "A7"f>g :|
[2 "Em"e>d e>f "A7"e2 d>B |\
   "D"A<d d2 "Bm"d<f f>d | "Em"e>d "A7"c>B "D"A3 A |\
   "G"B>G B<d "A7"c>A c<e | "D"f2 "G"d2 "D"d4 |]
%%begintext align
This tune along with 'Little & Large' was composed for the dance Johnnie Walker (64S+64J) devised by
Norman & Helen Robson. As members of the Guisborough Country Dance Club they used to attend many
of the Goathland weekends which the band played for.
%%endtext

%%sep 1 1 500
%%sep 1 1 500

